flags/bb.svg

<svg width="512" height="512" viewBox="0 0 512 512" fill="none" xmlns="http://www.w3.org/2000/svg">
<path d="M384 512L128 512L128 -1.11901e-05L384 1.11901e-05L384 512Z" fill="var(--flag-palette-yellow, #ffda44)"/>
<path d="M144 512L-5.28978e-05 512L0 -6.29444e-06L144 6.29444e-06L144 512Z" fill="var(--flag-palette-blue, #0052b4)"/>
<path d="M512 512L368 512L368 -6.29444e-06L512 6.29444e-06L512 512Z" fill="var(--flag-palette-blue, #0052b4)"/>
<path d="M333.913 155.826L318.979 148.36C318.079 150.161 298.58 189.834 295.395 250.435H272.696V155.826L256 133.565L239.304 155.826V250.435H216.605C213.419 189.834 193.921 150.161 193.02 148.36L163.154 163.293C163.36 163.703 183.653 205.008 183.653 267.131V283.827H239.305V378.436H272.696V283.827H328.348V267.13C328.348 235.012 333.905 208.528 338.568 191.966C343.651 173.906 348.814 163.359 348.865 163.254L333.913 155.826Z" fill="var(--flag-palette-black, #333333)"/>
</svg>

<svg xmlns="http://www.w3.org/2000/svg" width="512" height="512" fill="none"><path fill="var(--flag-palette-yellow, #ffda44)" d="M384 512H128V0h256z"/><path fill="var(--flag-palette-blue, #0052b4)" d="M144 512H0V0h144zm368 0H368V0h144z"/><path fill="var(--flag-palette-black, #333333)" d="m334 155.8-15-7.4c-1 1.8-20.4 41.4-23.6 102h-22.7v-94.6L256 133.6l-16.7 22.2v94.6h-22.7a278 278 0 0 0-23.6-102l-29.8 14.9c.2.4 20.5 41.7 20.5 103.8v16.7h55.6v94.6h33.4v-94.6h55.6v-16.7c0-32 5.6-58.6 10.3-75.1 5-18 10.2-28.6 10.3-28.7z"/></svg>
